assets/images/icons/YouTube.svg

<svg viewBox="0 0 82 82" xmlns="http://www.w3.org/2000/svg"><g fill="#456172"><path d="m41 82a41 41 0 1 1 41-41 41 41 0 0 1 -41 41zm0-80a39 39 0 1 0 39 39 39 39 0 0 0 -39-39z"/><path d="m48 41-11.8 6.94v-13.85zm11 6.42v-12.86s0-6.2-6.2-6.2h-23.6s-6.2 0-6.2 6.2v12.87s0 6.2 6.2 6.2h23.59s6.2 0 6.2-6.2"/></g></svg>

<svg xmlns="http://www.w3.org/2000/svg" viewBox="0 0 82 82"><defs><style>.cls-1{fill:#456172;}</style></defs><title>YouTube</title><g id="Layer_2" data-name="Layer 2"><g id="Icons"><path class="cls-1" d="M41,82A41,41,0,1,1,82,41,41,41,0,0,1,41,82ZM41,2A39,39,0,1,0,80,41,39,39,0,0,0,41,2Z"/><path class="cls-1" d="M48,41,36.2,47.94V34.09Zm11,6.42V34.56s0-6.2-6.2-6.2H29.2s-6.2,0-6.2,6.2V47.43s0,6.2,6.2,6.2H52.79s6.2,0,6.2-6.2"/></g></g></svg>
